png/serverless.svg

<svg xmlns="http://www.w3.org/2000/svg" viewBox="0 0 32 32"><path d="M2 22.419h4.956L5.42 27H2Zm0-8.709h7.875L8.34 18.29H2ZM2 5h10.794l-1.535 4.581H2Zm15.679 0H30v4.581H16.143Zm-4.455 13.291 1.536-4.581H30v4.581Zm-1.383 4.128H30V27H10.305Z" style="fill:#fd5750"/></svg>

<?xml version="1.0" encoding="utf-8"?><!-- Uploaded to: SVG Repo, www.svgrepo.com, Generator: SVG Repo Mixer Tools -->
<svg width="800px" height="800px" viewBox="0 0 32 32" xmlns="http://www.w3.org/2000/svg"><title>file_type_serverless</title><path d="M2,22.419H6.956L5.42,27H2ZM2,13.71H9.875L8.34,18.29H2ZM2,5H12.794L11.259,9.581H2ZM17.679,5H30V9.581H16.143ZM13.224,18.291,14.76,13.71H30v4.581Zm-1.383,4.128H30V27H10.305Z" style="fill:#fd5750;fill-rule:evenodd"/></svg>
